X:1
T:Awake, O Zion’s Daughter
T:John Robson Sweney
T:Awake, O Zion’s Daughter
T:Public Domain
T:Public Domain
C:John Robson Sweney
Z:Public Domain
%%score ( 1 2 ) ( 3 4 )
L:1/8
M:4/4
K:C
V:1 treble 
V:2 treble 
V:3 bass 
V:4 bass 
V:1
 G2 | c3 c (cE)(FG) | (A2 G2) E2 C2 | [B,D]2 [B,G]2 [B,G]2 [DF]2 | [CE]4- [CE][EG][EG][EG] | %5
w: 1.~A-|O Zi- on’s * daugh- *|night; * Come forth|ty, Ar- rayed in|gar- * ments bright; Why|
w: 2.~Thou|not been for- * sak- *|pressed; * Thy tears|ed, By Him who|loves * thee best; Oh,|
w: 3.~His|thy foes shall * con- *|bind, * And they|ror, Like chaff be-|fore * the wind, While|
 (A3 ^G [FA]2) [FB]2 | [Ec]4 [EG]2 [Ge]2 | [^Fe]2 [Fd]2 [FA]2 [Fd]2 | G4- GGGG | %9
w: should * * thy|be si- lent?|Why should thy harps|be * still, When He,|
w: look * * a-|the sha- dows|For Him who yet|shall * reign; Look up|
w: thou * * thy-|tri- umph- ant,|Up- on the earth|shall * stand, The light|
 ([Fd]3 [E^c] [Ge]2) [Fd]2 | [Ec]4 [EG]2 [EG]2 | [FA]3 [FB] [Fc]2 [Ad]2 | [^Ge]6 [Ge]2 | %13
w: ing, * * Thy|soul with joy|to fill? A- wake,|a- wake,|
w: ant, * * Thy|trust is not|in vain. * *||
w: tion, * * The|pride of ev-|ery land. * *||
 [Ae]2 [Fd]2 [FA]2 [Fd]2 | (d2 c2) [EG]2 [Ec]2 | [Ec]2 [DB]2 [Ge]2 [Fd]2 | [Ec]4- [Ec]3/2 || %17
w: O Zi- on’s daugh-|ter, * A- wake|sor- row’s night; Come|forth *|
w: ||||
w: ||||
"^Refrain" G<^F G/ | (z3/2 F/ F>F [FB]>)[FA] [EG]>[DF] | [^DA]4 [EG]2 [Ec]2 | %20
w: in all thy|* * * * beau- ty, Ar-|in gar- ments|
w: |||
w: |||
 (G2 G2 [Gd]>)[Gd] [Gc]>[Gd] | (G>G G>G [Ge])[Ge][Ge][Ge] | (e2 d2 f2) [Ge]2 | %23
w: bright. * * * * *|||
w: |||
w: |||
 (d2 c2) [FA]2 [FA]2 | [EG]3 [Ec] [Ec]2 [FB]2 | [Ec]6 |] %26
w: |||
w: |||
w: |||
V:2
 G2 | c3 c cEFG | A2 G2 E2 C2 | x8 | x8 | F4 x4 | x8 | x8 | G4- GGGG | x8 | x8 | x8 | x8 | x8 | %14
w: wake,|ter, A- wake from sor- row’s|in all thy beau-|||vales|||the * Lord, is com-||||||
w: hast|en, Tho’ long by foes op-|were not un- heed-|||bove|||with * eyes ex- pect-||||||
w: arm|quer, His power their strength shall|shall fly in ter-|||self|||of * ev- ery na-||||||
 E4 x4 | x8 | x11/2 || x5/2 | B4- x4 | x8 | d4- x4 | e4- x4 | G6 x2 | F4 x4 | x8 | x6 |] %26
w: from||||rayed||||||||
w: ||||||||||||
w: ||||||||||||
V:3
 G,2 | C3 (C C)(E,F,)G, | (A,2 G,2) E,2 C,2 | [G,,G,]2 [G,,D,]2 [G,,D,]2 [G,,G,]2 | %4
w: ~|~ ~ * ~ * ~|~ * ~ ~|~ ~ ~ ~|
 [C,G,]4- [C,G,][C,C][C,C][C,C] | ([F,C]4 [F,C]2) [D,G,]2 | [C,G,]4 [C,C]2 [C,C]2 | %7
w: ~ * ~ ~ ~|~ * ~|~ ~ ~|
 [D,A,]2 [D,A,]2 [D,D]2 [D,C]2 | G,4- G,G,G,G, | G,6 [G,B,]2 | [C,C]4 [C,C]2 [C,C]2 | %11
w: ~ ~ ~ ~|~ * ~ ~ ~|~ ~|~ ~ ~|
 [F,C]3 [F,B,] [F,A,]2 [F,A,]2 | [E,B,]6 [E,B,]2 | [F,A,]2 [F,A,]2 [F,C]2 [F,A,]2 | %14
w: ~ ~ A- wake,|a- wake,|~ ~ ~ ~|
 [C,G,]4 [C,C]2 [C,G,]2 | G,2 G,2 [G,,G,]2 [G,,G,]2 | [C,G,]4- [C,G,]3/2 || z/ z2 | %18
w: ~ A- wake,|a- wake, ~ ~|from *||
 z3/2 [G,D]/ [G,D]>[G,D] [G,D]>[B,,G,] [B,,G,]>[B,,G,] | [C,^F,]4 [C,G,]2 [C,G,]2 | %20
w: sor- row’s night, * * * *||
 [G,B,]2 [G,B,]2 [G,B,]>[F,B,] [E,C]>[D,B,] | [C,C]>[C,C] [C,C]>[C,C] [C,C] z2 C | %22
w: ||
 C2 [G,B,]2 [B,D]2 C2 | [F,A,]4 [F,C]2 [F,C]2 | [G,C]3 G, G,2 [G,,G,]2 | [C,G,]6 |] %26
w: ||||
V:4
 G,2 | C3 C CE,F,G, | A,2 G,2 E,2 C,2 | x8 | x8 | x8 | x8 | x8 | G,4- G,G,G,G, | G,6 x2 | x8 | x8 | %12
w: ~|~ ~ ~ ~ ~ ~|~ ~ ~ ~||||||~ * ~ ~ ~|~|||
 x8 | x8 | x8 | G,2 G,2 x4 | x11/2 || x5/2 | x8 | x8 | x8 | x7 C | C2 x2 C2 x2 | x8 | %24
w: |||~ ~|||||||||
 x3 G, G,2 x2 | x6 |] %26
w: ||

